dist/img/icons/favicons/favicon.svg

<svg width="16" height="16" viewBox="0 0 16 16" fill="none" xmlns="http://www.w3.org/2000/svg">
<path d="M16 0H0V16H16V0Z" fill="#A30BDE" style="fill:#A30BDE;fill:color(display-p3 0.6392 0.0431 0.8706);fill-opacity:1;"/>
<g clip-path="url(#clip0_1_14)">
<path d="M8.15171 8.55094C6.84038 9.86741 7.00231 11.1862 7.59778 12.1795C6.22975 11.5962 4.96671 9.28338 6.71671 7.18338C8.58338 5.31672 8.23338 4.50005 8.23338 3.80005C8.81671 4.85005 9.72811 6.96872 8.15171 8.55094Z" fill="white" style="fill:white;fill-opacity:1;"/>
<path d="M7.88241 12.2001C7.60334 11.595 7.31214 10.1316 8.15774 9.28339C9.68094 7.71306 9.43641 6.33709 9.40258 6.25403L9.40001 6.25006C9.40072 6.25006 9.40165 6.25146 9.40258 6.25403C9.46534 6.35296 10.66 8.29103 9.78058 10.4501C10.2881 10.157 10.5039 9.75683 10.5667 9.63339C10.3039 11.7623 8.96088 12.1128 7.88241 12.2001ZM7.41668 6.01672C6.71668 6.44443 5.13421 7.53339 5.04088 8.93339C4.94754 10.3334 5.74088 10.9167 6.20754 11.3834C5.97421 11.0334 5.50754 10.1701 5.50754 9.05006C5.50754 7.93006 6.79438 6.52236 7.41668 6.01672Z" fill="white" style="fill:white;fill-opacity:1;"/>
</g>
<defs>
<clipPath id="clip0_1_14">
<rect width="11.2" height="11.2" fill="white" style="fill:white;fill-opacity:1;" transform="translate(2.40002 2.40002)"/>
</clipPath>
</defs>
</svg>

<svg width="16" height="16" fill="none" xmlns="http://www.w3.org/2000/svg"><path d="M16 0H0v16h16V0Z" fill="#A30BDE" style="fill:color(display-p3 .6392 .0431 .8706);fill-opacity:1"/><g clip-path="url(#a)" fill="#fff"><path d="M8.152 8.55c-1.312 1.317-1.15 2.636-.554 3.63-1.368-.584-2.631-2.897-.881-4.997C8.583 5.317 8.233 4.5 8.233 3.8c.584 1.05 1.495 3.169-.081 4.75Z" style="fill:#fff;fill-opacity:1"/><path d="M7.882 12.2c-.279-.605-.57-2.068.276-2.917 1.523-1.57 1.278-2.946 1.245-3.029L9.4 6.25l.003.004c.062.099 1.257 2.037.378 4.196.507-.293.723-.693.786-.817-.263 2.13-1.606 2.48-2.685 2.567Zm-.465-6.183c-.7.427-2.283 1.516-2.376 2.916-.093 1.4.7 1.984 1.167 2.45a4.349 4.349 0 0 1-.7-2.333c0-1.12 1.286-2.528 1.909-3.033Z" style="fill:#fff;fill-opacity:1"/></g><defs><clipPath id="a"><path fill="#fff" style="fill:#fff;fill-opacity:1" transform="translate(2.4 2.4)" d="M0 0h11.2v11.2H0z"/></clipPath></defs></svg>
